X:33
T:Borden
R:reel
C:Bruce Osborne - Dec. 2002
Z:abc by bosborne@kos.net
M:2/4
L:1/8
K:Cmaj
G/F/|E/C/B,/C/ E/C/E/G/|g/e/c/A/ G/E/F/E/|D/C/D/E/ F/G/B/A/|G/A/G/F/ E/F/G/F/|\
E/C/B,/C/ E/C/E/G/|g/e/c/A/ G/E/F/E/|D/C/D/E/ F/G/B/A/|G/A/e/d/ c:|
|:e/f/|g/c/B/c/ G/c/B/c/|g/e/c/A/ G/E/F/E/|D/C/D/E/ F/G/B/A/|G/A/G/F/ E/G/e/f/|\
g/c/B/c/ G/c/B/c/|g/e/c/A/ G/E/F/E/|D/C/D/E/ F/G/B/A/|G/A/e/d/ c:|
